src/assets/outline/Hierarchy2.svg

<svg width="24" height="24" viewBox="0 0 24 24"  xmlns="http://www.w3.org/2000/svg">
<path d="M5 15.75C4.59 15.75 4.25 15.41 4.25 15V8C4.25 7.59 4.59 7.25 5 7.25C5.41 7.25 5.75 7.59 5.75 8V15C5.75 15.41 5.41 15.75 5 15.75Z" />
<path d="M5.25 22.75C3.04 22.75 1.25 20.96 1.25 18.75C1.25 16.54 3.04 14.75 5.25 14.75C7.46 14.75 9.25 16.54 9.25 18.75C9.25 20.96 7.46 22.75 5.25 22.75ZM5.25 16.25C3.87 16.25 2.75 17.37 2.75 18.75C2.75 20.13 3.87 21.25 5.25 21.25C6.63 21.25 7.75 20.13 7.75 18.75C7.75 17.37 6.63 16.25 5.25 16.25Z" />
<path d="M5 8.75C2.93 8.75 1.25 7.07 1.25 5C1.25 2.93 2.93 1.25 5 1.25C7.07 1.25 8.75 2.93 8.75 5C8.75 7.07 7.07 8.75 5 8.75ZM5 2.75C3.76 2.75 2.75 3.76 2.75 5C2.75 6.24 3.76 7.25 5 7.25C6.24 7.25 7.25 6.24 7.25 5C7.25 3.76 6.24 2.75 5 2.75Z" />
<path d="M19 8.75C16.93 8.75 15.25 7.07 15.25 5C15.25 2.93 16.93 1.25 19 1.25C21.07 1.25 22.75 2.93 22.75 5C22.75 7.07 21.07 8.75 19 8.75ZM19 2.75C17.76 2.75 16.75 3.76 16.75 5C16.75 6.24 17.76 7.25 19 7.25C20.24 7.25 21.25 6.24 21.25 5C21.25 3.76 20.24 2.75 19 2.75Z" />
<path d="M5.13011 15.7503C5.07011 15.7503 5.01011 15.7403 4.94011 15.7303C4.54011 15.6303 4.30011 15.2203 4.40011 14.8203C4.95011 12.7003 6.86011 11.2203 9.05011 11.2203C9.06011 11.2203 9.06011 11.2203 9.07011 11.2203L12.5001 11.2303C12.5101 11.2303 12.5101 11.2303 12.5201 11.2303C14.7401 11.2303 16.7301 9.82026 17.4601 7.72026C17.6001 7.33026 18.0201 7.12027 18.4101 7.26027C18.8001 7.40027 19.0101 7.82025 18.8701 8.21025C17.9301 10.9202 15.3401 12.7003 12.4901 12.7303L9.06011 12.7203H9.05011C7.54011 12.7203 6.23011 13.7403 5.85011 15.2003C5.77011 15.5303 5.46011 15.7503 5.13011 15.7503Z" />
</svg>

<?xml version="1.0" encoding="UTF-8"?>
<svg width="24" height="24" viewBox="0 0 24 24" xmlns="http://www.w3.org/2000/svg">
 <path d="m5 15.75c-0.41 0-0.75-0.34-0.75-0.75v-7c0-0.41 0.34-0.75 0.75-0.75s0.75 0.34 0.75 0.75v7c0 0.41-0.34 0.75-0.75 0.75z"/>
 <path d="m5.25 22.75c-2.21 0-4-1.79-4-4s1.79-4 4-4 4 1.79 4 4-1.79 4-4 4zm0-6.5c-1.38 0-2.5 1.12-2.5 2.5s1.12 2.5 2.5 2.5 2.5-1.12 2.5-2.5-1.12-2.5-2.5-2.5z"/>
 <path d="m5 8.75c-2.07 0-3.75-1.68-3.75-3.75s1.68-3.75 3.75-3.75 3.75 1.68 3.75 3.75-1.68 3.75-3.75 3.75zm0-6c-1.24 0-2.25 1.01-2.25 2.25s1.01 2.25 2.25 2.25 2.25-1.01 2.25-2.25-1.01-2.25-2.25-2.25z"/>
 <path d="m19 8.75c-2.07 0-3.75-1.68-3.75-3.75s1.68-3.75 3.75-3.75 3.75 1.68 3.75 3.75-1.68 3.75-3.75 3.75zm0-6c-1.24 0-2.25 1.01-2.25 2.25s1.01 2.25 2.25 2.25 2.25-1.01 2.25-2.25-1.01-2.25-2.25-2.25z"/>
 <path d="m5.1301 15.75c-0.06 0-0.12-0.01-0.19-0.02-0.4-0.1-0.64-0.51-0.54-0.91 0.55-2.12 2.46-3.6 4.65-3.6h0.02l3.43 0.01h0.02c2.22 0 4.21-1.41 4.94-3.51 0.14-0.39 0.56-0.59999 0.95-0.45999s0.6 0.55998 0.46 0.94998c-0.94 2.71-3.53 4.49-6.38 4.52l-3.43-0.01h-0.01c-1.51 0-2.82 1.02-3.2 2.48-0.08 0.33-0.39 0.55-0.72 0.55z"/>
</svg>
